X: 1
T: Peacock, The
M: 4/4
L: 1/8
R: barndance
K: Emin
|: B>A | 
G2 E2 E2 DE | GA/G/ FG A2 GA | B2 B>c BA GA | B2 D2 D2 BA | 
G3 E EF/E/ DE | G2 G2 A2 GA | B3 e dB AB | G2 E2 E2 :|
|: Bc | 
d3 e dc c/B/A/G/ | B2 e2 e2 g/f/e | de/d/ de dc B>A | B3 E D2 BA | 
G2 E2 EG D/E/F | GA/G/ FG AB/A/ GA | B3 e dB AF | G2 E2 E2 :|
